X: 22489
T: Lady Charlotte Campbell's New
R: strathspey
M: 4/4
K: Cdorian
|:F/|D<F F>D E<G G>B|(3ABc f>e d>b B<b|D<F F>D E<G G>B|(3ABc (3Ffe d<B B3/2:|
a/|b>B A<a g>G F>f|ec e/d/c/B/ A<c (3cga|b>B a>B g>B f>B|(3ABc (3Ffe d<B B>a|
b>B A<a g>G F>f|ec e/d/c/B/ A<c (3cBA|G>B F>B E>B D>F|(3EFG F>E D<B, B,3/2||

